X:1
T:Madrid, VWV 1136
T:Madrid
T:Madrid
T:Pauline Viardot
T:Alfred de Musset
T:Madrid, VWV 1136
T:A Mademoiselle MATHILDE de NOGUEIRAS.
T:OpenScore (CC0)
T:OpenScore (CC0)
T:OpenScore (CC0)
T:OpenScore (CC0)
T:OpenScore (CC0)
T:OpenScore (CC0)
T:OpenScore (CC0)
T:OpenScore (CC0)
C:Pauline Viardot
Z:Alfred de Musset
Z:OpenScore (CC0)
%%score 1 { 2 | ( 3 4 ) }
L:1/8
Q:1/4=120
M:3/4
K:F
V:1 treble nm="CHANT."
V:2 treble nm="PIANO."
V:3 bass 
V:4 bass 
V:1
"^Tempo di Bolero.""^Tempo di Bolero." z6[Q:1/4=108]"_Tempo di Bolero." | z2 z2 z!f! G | d6 | %3
w: |Ma-|drid,|
 z B c d c B | (A/B/A/F/) A2 (!>!GA/G/) | (F/G/F/D/) F2 (!>!_EF/E/) | D4 z2 | z!mf! D E F G A | %8
w: prin- ces- se des Es-|pa \-- * * * * * * *||\- gnes,|Il court par tes mil-|
 G3/2 F/ G2 G2 | z F G!<(! A B c | B3/2!<)! =A/[Q:1/4=100]"_rit."!>(! B4!>)! | %11
w: le cam- pa- gnes|Bien des yeux bleus, bien|des yeux noirs.|
 z!p![Q:1/4=108]"_en mesure." B A G F A | (!>!G/A/ B/A/ G2) G z | z B A G F A | %14
w: La blan- che ville aux|sé- * ré- * na- des,|Il pas- se par tes|
 (!>!G/A/) (B/A/) G2 G z | !>!A3 B A B | A2 B2 G2 | A6- | A2 z2 z2 | z2 z2 z!f! G | d6 | %21
w: pro- * me- * na- des,|Bien des pe- tits|pieds tous les|soirs.|_|Ma-|drid,|
 z B c d c B | (A/B/A/F/ !>!A2) (G/A/G/_E/) | (F/G/F/D/ !>!F2) (!>!_EF/E/) | D4 z2 | %25
w: quand les tau- reaux bon-|dis \-- * * * * * * * *||\- sent,|
 z!<(! D E F G A!<)! | G3/2 F/ G2 G z | z !>!F !>!G !>!A !>!B !>!c | %28
w: Bien des mains blan- ches|ap- plau- dis- sent,|Bien des é- char- pes|
!<(! B3/2!<)! A/[Q:1/4=100]"_rit."!>(! B4!>)! | z[Q:1/4=108]"^en mesure."!p! (B A G F A) | %30
w: sont en jeu;|Par tes bel- les nuits|
 (G/A/) (B/A/) G2 G z | z !>!B A G F A | (G/A/ B/A/ G2) !breath!G B |!>(! (Afe!>)!d) c B | %34
w: é- * toi- * lé- es,|Bien des sé- ño- ras|long * voi- * lé- es Des-|cen- * * * dent tes|
 A2 B2 G2 | A6 | z2 z2 z!f! A | A4 z A | !^!d3 !^!c !^!B !^!A | c(3d/c/B/ A z G A | B2 B A G F | %41
w: es- ca- liers|bleus.|Ma-|drid, Ma-|drid, moi je me|rail- * * * le De tes|da- mes à fi- ne|
 (!>!A/B/A/F/) _E z GB | A3/2 E/ E E ^F G | A4- A z |!f! d2 d d e d | (c/=B/ A/B/ c2) c z | %46
w: tail- * * * le Qui *|chaus- sent l'es- car- pin é-|\- troit; _|Car j'en sais u- ne,|par * le * mon- de,|
 c3/2 c/ c c (dc) | (=B/A/ G/A/ B2) B z | !>!=B3/2 c/ =A2 B A |!<(! G =A!<)! !breath!=B4 | %50
w: Que ja- mais ni bru- *|ne * ni * blon- de|N'ont va- lu le bout|de son doigt,|
!f! d2 d d e d | (c/=B/) (A/B/) c2 c z | z2 c c (dc) | (=B/A/) (G/A/) B2 B z | %54
w: Car c'est ma prin- cesse|An- * da- * lou- se!|Ma prin- cesse *|An- * da- * lou- se!|
!<(! ^F G/ A/!<)!!>(! (=B2 E)!>)! z |!<(! ^F (G/=A/)!<)!!>(! (=B2!>)! E) z | %56
w: Mon a- mou- reu- se,|ma ja- * lou- se,|
!<(! E F/ G/!<)!!>(! (A3!>)! D) |!<(! E F!<)! G4 | z6 | z2!f! F G _A B | c2 z2 !^!c c | %61
w: Ma bel- le veuve au|long ré- seau!||C'est un vrai dé-|mon, c'est un|
!>(! =A4!>)! A2 | z2 z2 D D | G2 G A B c | A2 A z A A |!<(! !^!A2 A =B c d!<)! | e6- | %67
w: an- ge!|Elle est|jau- ne comme une o-|ran- ge, Elle est|vi- ve com- me l'oi-|seau!|
!>(! e4!>)! z2 | z6 | z6 |!f! !breath!d4 A2 | B c d2 c B | (!^!A/B/A/F/) !^!A2 (G/A/G/_E/) | %73
w: _|||Or, si|d'a- ven- ture on s'en-|quê \-- * * * * * * * *|
 (F/c/B/G/ A/B/G/A/ F/G/_E/F/ | D2) z2 z2 | z !^!D !^!E !^!F !^!G !^!A | !^!G3/2 F/ !^!G2 G z | %77
w: |\- te|Qui m'a va- lu tel-|le con- quê- te,|
!f! F G A2 B c | B3/2 =A/ B4 | z B A G F A | (G/A/) (B/A/) G2 G z | z B A G F A | %82
w: C'est l'al- lu- re de|mon che- val,|Un com- pli- ment sur|sa * man- * til- le|Et des bon- bons à|
 G/A/ B/A/ G2 G z | z2 z!f! D F G | A4- A z |!f! !^!d2 !^!e2 !^!^c2 | !^!d2 z2 z2 |] %87
w: la * va * nil- le|Par un beau|soir _|de car- na-|val.|
V:2
!mf! z (3(D/A,/F,/) D[F,A,D] z [G,B,D] | z (3(D/A,/F,/) D[F,A,D] z [G,B,D] | %2
 [D^FAd] [A,D]/[A,D]/ .[A,D].[A,D].[A,D].[A,D] | z!p! .[GB].[Ac].[Bd].[Ac].[GB] | %4
 z (3(A/F/C/) .A.[CFA] z .[B,_EB] | z (3(F/D/A,/) .F.[A,DF] z [B,_E] | %6
 z (3D/A,/F,/ D[F,A,D] z [F,A,D] | z (3(F/D/A,/) .F.[A,DF] z .[A,DF] | %8
 z (3(G/_E/C/) .G.[B,EG] z .[B,EG] | z (3(F/_E/A,/) .F.[A,EF] z .[A,EF] | %10
 z!>(! (3(_F/B,/!>)!_G,/) .=F.[G,B,F] z .[G,B,F] |!p! z .[B,F] z .[B,F] z .[B,F] | %12
 z (_E/E/ !wedge!B) (_e/e/ !wedge!b) z | z [B,F]z[B,F]z[B,F] | %14
 z (=E/E/ !wedge!B) (.=e/.e/ !wedge!b) z | z !>![Ac]/[Ac]/ .[Ac].[Bd].[Ac].[Bd] | %16
 .[FAc] z .[Bd] z .[EG] z |!<(! z/ .[A,^CA].[A,CA].[A,CA].[A,CA].[A,CA]!<)!.[A,CA]/ | %18
 z/ .[_B,DA].[_B,DA].[_B,DA].[_B,DA].[_B,DA].[_B,DA]/ | %19
!>(! z/ .[A,^CGA].[A,CGA].[A,CGA]!>)!.[A,CGA].[A,CGA].[A,CGA]/ | %20
 [D^FAd] (3(D/A,/^F,/) D[F,A,D] z [F,A,D] | z .[GB].[Ac].[Bd].[Ac].[GB] | %22
 z [CF][FA]!^![Af] z .[_EG] | z ([A,DF][DF]!^![Fd]) z [C_E] | z (3(D/A,/F,/) .D.[F,A,D] z [F,A,D] | %25
 z (3(F/D/A,/) .F.[A,DF] z [A,DF] | z (3(G/_E/B,/) G[B,EG] z [B,EG] | %27
 z (3(F/_E/A,/) .F.[A,EF] z [A,EF] | z!>(! (3(_F/B,/_G,/) F!>)![G,B,F] z [G,B,F] | %29
!p! z [B,=F]z[B,F]z[B,F] | z (_EB_e b) z | z .[B,F]z.[B,F]z.[B,F] | z (=EB=e b) z | %33
 z ([cf] [Be][Ad][Gc][FB]) | .[Ac]z.[Bd]z.[ce] z | %35
!<(!!<(! z/ [A,^CA][A,CA]!<)!!>(![A,CA][A,CA][A,CA]!<)!!>)![A,CA]/ | %36
 z/ [_B,DA][B,DA][B,DA][B,DA][B,DA][B,DA]/ | z/ [A,^CGA][A,CGA][A,CGA][A,CGA][A,CGA][A,CGA]/ | %38
 [^F,A,D][F,A,D]/[F,A,D]/ [F,A,D][F,A,D][F,A,D][F,A,D] | %39
 !^![^F,A,D][F,A,D]/[F,A,D]/ [F,A,D][F,A,D][F,A,D][F,A,D] | %40
 !^![G,B,_E][G,B,E]/[G,B,E]/ [G,B,E][G,B,E][G,B,E][G,B,E] | %41
 !^![G,B,_E][G,B,E]/[G,B,E]/ [G,B,E][G,B,E][G,B,E][G,B,E] | %42
 !^![G,A,^C=E][G,A,CE]/[G,A,CE]/ [G,A,CE][G,A,CE][G,A,CE][G,A,CE] | %43
 x2[I:staff +1] !2!^F,/!1!A,/[I:staff -1]C/E/ ^F/!1!A/c/e/ | %44
!f! z x !wedge!D (3(E/G/=B/) !wedge![Ee]!wedge![Dd] | %45
 z x !wedge!E (3(^F/A/c/) !wedge![F^f]!wedge![Ee] | x2 !wedge!_E (3(^F/A/c/) .[=F=f].[E_e] | %47
 z x !wedge!D (3(F/G/=B/) .[Ee].[Dd] |!p! =BC/_E/ AC/E/ BC/E/ | %49
 z C/!<(!_E/ z =B,/^D/ z =D/!<)!=B/ |!f! z x !wedge!D (3(F/_A/=B/) !wedge![Ee]!wedge![Dd] | %51
 z x !wedge!C (3(D/F/_A/) !wedge!c!wedge![DFA] | %52
 z x !wedge!_E (3(E/_A/c/) !wedge![Ff]!wedge![E_e] | %53
 z x !wedge!D (3(F/G/=B/) !wedge![Ee]!wedge![Dd] | z (3(A,/!<(!=B,/^D/ ^F)!<)![A,DF] z [G,B,E] | %55
 z!<(! (3(A,/=B,/^D/)!<)! ^F[A,DF] z [G,B,E] | z (3(G,/A,/C/ E) [A,CE] z [A,CD] | %57
 z (3(F,/_A,/C/ D) [A,CD] z [G,=B,D] |!<(! z/ .[CEc].[CEc].[CEc].[CEc].[CEc]!<)!.[CEc]/ | %59
 z/!>(! .[_DFc].[DFc].[DFc].[DFc].[DFc]!>)!.[DFc]/ | %60
 z/!<(! .[CEc].[CEc].[CEc].[CEc].[CEc]!<)!.[CEc]/ | %61
 z/!>(! .[_EGA].[EGA].[EGA].[EGA].[EGA]!>)!.[EGA]/ | z/!<(! [D^Fd][DFd][DFd][DFd][DFd]!<)![DFd]/ | %63
!>(! z/ [_EGd][EGd][EGd][EGd][EGd]!>)![EGd]/ |!<(! z/ [D^Fd][DFd][DFd][DFd][DFd]!<)![DFd]/ | %65
!>(! z/ [=FA=B][FAB][FAB][FAB][FAB]!>)![FAB]/ |!<(! z/ [E^Ge][EGe][EGe][EGe][EGe]!<)![EGe]/ | %67
!>(! z/ [=FAe][FAe][FAe][FAe][FAe]!>)![FAe]/ | %68
[I:staff +1] E,/^F,/^G,/A,/"_cresc."[I:staff -1] =B,/^C/D/^D/"_M.G." E/ ^F/G/^G/ | %69
 A/=B/^c/!1!d/ e/^f/!1!g/^g/ !1!a/!2!=b/!3!=c'/!4!^c'/ | [d^fd']!mf! [D^F]/[DF]/ [DF][DF][DF][DF] | %71
 [GB][Ac] [Bd]2 [Ac][GB] |!p! z .[CF].[FA].[CF] z .[B,_EG] | %73
 z !wedge![A,D]!wedge![DF]!wedge![A,D] z !wedge![A,C] | z (3(D/A,/F,/) .D.[F,A,D] z .[G,B,D] | %75
 z (3(F/C/A,/) .F.[A,DF] z .[A,DF] | z [B,_EG] ([_eg]/[fa]/[gb]/[fa]/) !wedge![eg] z | %77
 z (3(F/_E/A,/) !wedge!F!wedge![A,EF] z !wedge![A,EF] | %78
 z2!8va(! ([_gb]/[_a_c']/[b_d']/[ac']/ [gb])!8va)! z | z .[B,F]z.[B,F]z.[B,F] | %80
 z [B,_EG] ([_eg]/[fa]/[gb]/[fa]/ [eg]) z | z .[B,F]z.[B,F]z.[B,F] | %82
 z2!8va(! ([gb]/[fa]/[eg]/[fa]/ [gb])!8va)! z | %83
!<(! ([fa]/[eg]/[df]/[eg]/) ([fa]/[eg]/[df]/[eg]/) ([fa]/[eg]/[df]/[eg]/) | %84
 [fa]/ D/E/F/ G/A/=B/^c/ d/e/f/!<)!g/ | [Adfa]2 [Aega]2 [^CEA^c]2 | [DFAd]2 z2 z2 |] %87
V:3
 !^!D,, z D, z G,, z | !^!D,, z D, z G,, z | [D,,D,] [D,^F,]/[D,F,]/ .[D,F,].[D,F,].[D,F,].[D,F,] | %3
 G,,[D,G,B,]/[D,G,B,]/ [D,G,B,][D,G,B,][D,G,B,][D,G,B,] | !^!F,4 !^!_E,2 | !^!D,4 G,,2 | %6
 D,2 z2 D, z | D,2 z2 D, z | C,2 z2 C, z | C,2 z2 F,,2 | !^!_D,4 D,2 | .=D,.F, .D,.F, .D,.F, | %12
!ped! C,[F,B,] C,[F,B,_E] C,[F,B,E]!ped-up! | D,F,D,F,D,F, | _D,[G,B,] D,[G,B,] D,[G,B,] | %15
 C,[I:staff -1] [CF]/[CF]/ .[CF].[CF].[CF].[CF] | %16
!p! [CF][I:staff +1] z[I:staff -1] [CF][I:staff +1] z[I:staff -1] [CF][I:staff +1] z | %17
 .A,,.=B,,.^C,.D,.E,.F, |!mf! .G,.F,.E,.D,.=C,._B,, | .A,,.B,,.A,,.G,,.F,,.E,, | D,, z z2 D, z | %21
 G,,[D,G,B,]/[D,G,B,]/ .[D,G,B,].[D,G,B,].[D,G,B,].[D,G,B,] | !>!F,4 !>!_E,2 | !>!F,4 !>!G,,2 | %24
 !>!F,2 z2 D, z | D,2 z2 D, z | C,2 z2 C, z | F,2 z2 F,, z | _D,4 D,2 | .=D,.F, .D,.F, .D,.F, | %30
 C,[F,B,] C,[F,B,_E] C,[F,B,E] | D,F,D,F,D,F, | ._D,.[G,B,] .D,.[G,B,E] .D,.[G,B,E] | %33
!ped! =C,[I:staff -1] AGFED | %34
 [CF]!ped-up![I:staff +1]z[I:staff -1][CF][I:staff +1]z[I:staff -1][CG][I:staff +1] z | %35
 A,,=B,,^C,D,E,F, | G,F,E,D,=C,_B,, | A,,B,,A,,G,,F,,E,, | %38
!ped! [D,,A,,D,][D,,A,,D,] [D,,D,][D,,D,][D,,D,][D,,D,] | %39
 !^![D,,A,,D,][D,,A,,D,] [D,,D,][D,,D,][D,,D,][D,,D,]!ped-up! | %40
!ped! !^![D,,B,,_E,][D,,B,,E,]/[D,,B,,E,]/ [D,,B,,E,][D,,B,,E,][D,,B,,E,][D,,B,,E,] | %41
 !^![D,,B,,_E,][D,,B,,E,]/[D,,B,,E,]/ [D,,B,,E,][D,,B,,E,][D,,B,,E,][D,,B,,E,]!ped-up! | %42
 [D,,A,,]2 [D,,A,,][D,,A,,][D,,A,,][D,,A,,] |!ped! D,,A,,/D,/ x4!ped-up! | %44
!ped! G,, (3(D,/G,/=B,/) [D,G,B,] z !wedge![D,G,B,]!wedge![D,G,B,]!ped-up! | %45
 G,, (3E,/A,/C/ [E,A,C] z !wedge![E,A,C]!wedge![E,A,C] | G,, (3^F,/A,/C/ [^F,A,] z .[F,A,].[F,A,] | %47
 G,, (3F,/G,/=B,/ [G,B,] z .[G,B,].[G,B,] | C,/G,/ z C,/G,/ z C,/G,/ z | %49
 C,/G,/ z =B,,/^F,/ z F,/=B,/ z | %50
!ped! G,, (3F,/_A,/=B,/ [F,A,B,] z !wedge![F,A,B,]!wedge![F,A,B,]!ped-up! | %51
!ped! G,, (3D,/F,/_A,/ [D,F,A,] z !wedge![D,F,A,]!wedge![D,F,A,]!ped-up! | %52
!ped! G,, (3(_E,/_A,/C/) [_E,_A,C] z !wedge![E,A,C]!wedge![E,A,C]!ped-up! | %53
 G,, (3(F,/G,/=B,/) [F,G,] z !wedge![F,G,]!wedge![F,G,] |!ped! G,,4 G,, z!ped-up! | %55
!ped! G,,4 G,,!ped-up! z | (G,4 F,2) | F,4 F,2 | .C,.D,.E,.F,.G,._A, | .B,._A,.G,.F,._E,._D, | %60
 .C,.=D,.=E,.F,.G,.A, | .C.B,.A,.G,.F,._E, | D,=E,^F,G,A,B, | CB,A,G,F,_E, | D,=E,^F,G,A,=B, | %65
 DC=B,A,G,F, | [E,,E,]^F,^G,A,=B,C | DC=B,A,G,=F, | x6 |!f!!ped! [A,,E,G,A,]6!ped-up! | %70
 [D,,D,] [D,A,]/[D,A,]/ [D,A,][D,A,][D,A,][D,A,] | %71
 G,,[D,G,B,]/[D,G,B,]/ [D,G,B,][D,G,B,][D,G,B,][D,G,B,] | F,4 _E,2 | D,4 A,,2 | D,2 z2 D, z | %75
 !wedge!D,2 z2 D, z | C, z !wedge!C,!wedge![G,B,_E] !wedge!C,!wedge![G,B,E] | [C,,C,]2 z2 F,,2 | %78
 _D,[_G,B,_F] D,[G,B,F] D,[G,B,F] | .=D,.F,.D,.F,.D,.F, | .C,.[F,B,_E] .C,.[F,B,E] .C,.[F,B,E] | %81
 .D,.F,.D,.F,.D,.F, | !>!^C,[G,B,G] C,[G,B,G] C,[G,B,G] | [D,D]2 [=C,=C]2 [B,,B,]2 | %84
 [A,,A,]2 z2 z2 | [A,,F,A,]2 [A,,G,A,]2 [A,,E,A,]2 | [D,,D,]2 z2 z2 |] %87
V:4
 x6 | x6 | x6 | x6 | x6 | x6 | x6 | x6 | x6 | x6 | x6 | x6 | x6 | x6 | x6 | x6 | x6 | x6 | x6 | %19
 x6 | x6 | x6 | x6 | x6 | x6 | x6 | x6 | x6 | x6 | x6 | x6 | x6 | x6 | x6 | x6 | x6 | x6 | x6 | %38
 x6 | x6 | x6 | x6 | x6 | x6 | x z x4 | x z x4 | x z x4 | x z x4 | x6 | x6 | x z x4 | x z x4 | %52
 x z x4 | x z x4 | x6 | x6 | z2 G,,4 | z2 F,,4 | x6 | x6 | x6 | x6 | x6 | x6 | x6 | x6 | x6 | x6 | %68
 x6 | x6 | x6 | x6 | x6 | x6 | x6 | x6 | x6 | x6 | x6 | x6 | x6 | x6 | x6 | x6 | x6 | x6 | x6 |] %87

